src/assets/img/tools/graphql.svg

<svg width="24" height="24" fill="none" xmlns="http://www.w3.org/2000/svg"><g clip-path="url(#clip0)"><path d="M14.051 2.751l4.935 2.85a2.144 2.144 0 013.409.4 2.146 2.146 0 01-1.354 3.151v5.699a2.132 2.132 0 011.348 3.15 2.143 2.143 0 01-3.453.353l-4.905 2.832a2.14 2.14 0 11-4.171.678c0-.205.029-.41.088-.609l-4.936-2.847a2.14 2.14 0 11-2.052-3.559l.001-5.699A2.141 2.141 0 011.604 6a2.143 2.143 0 013.407-.405l4.938-2.85A2.138 2.138 0 0112 0a2.137 2.137 0 012.051 2.751zm-.515.877a.793.793 0 01-.058.058l6.461 11.19c.026-.009.056-.016.082-.023V9.146a2.135 2.135 0 01-1.558-2.588l.019-.072-4.946-2.858zm-3.015.059l-.06-.06-4.946 2.852a2.136 2.136 0 01-1.461 2.645l-.076.021v5.708l.084.023 6.461-11.19-.002.001zm2.076.507c-.39.112-.803.112-1.192 0l-6.46 11.189c.294.283.502.645.6 1.041h12.911c.097-.398.307-.761.603-1.044L12.597 4.194zm.986 16.227l4.913-2.838a1.748 1.748 0 01-.038-.142H5.542l-.021.083 4.939 2.852a2.126 2.126 0 011.54-.653c.627 0 1.19.269 1.583.698z" fill="#E10098"/></g><defs><clipPath id="clip0"><path fill="#fff" d="M0 0h24v24H0z"/></clipPath></defs></svg>

<svg width="24" height="24" viewBox="0 0 24 24" fill="none" xmlns="http://www.w3.org/2000/svg">
    <g clip-path="url(#clip0)">
        <path d="M14.051 2.751L18.986 5.601C19.802 4.742 21.159 4.708 22.018 5.524C22.166 5.664 22.292 5.825 22.395 6.001C22.984 7.029 22.627 8.34 21.599 8.929C21.425 9.029 21.238 9.104 21.041 9.152V14.851C22.187 15.124 22.895 16.274 22.621 17.42C22.573 17.624 22.494 17.82 22.389 18.001C21.797 19.024 20.488 19.375 19.462 18.783C19.266 18.67 19.087 18.524 18.936 18.354L14.031 21.186C14.403 22.31 13.793 23.521 12.67 23.892C12.453 23.963 12.228 24 12 24C10.819 24.001 9.861 23.045 9.86 21.864C9.86 21.659 9.889 21.454 9.948 21.255L5.012 18.408C4.196 19.262 2.841 19.295 1.986 18.478C1.132 17.662 1.1 16.307 1.916 15.452C2.199 15.155 2.562 14.946 2.96 14.849L2.961 9.15C1.811 8.874 1.103 7.717 1.38 6.566C1.427 6.368 1.503 6.177 1.604 6C2.196 4.976 3.506 4.626 4.531 5.218C4.708 5.319 4.87 5.446 5.011 5.595L9.949 2.745C9.613 1.612 10.26 0.423001 11.39 0.0880008C11.587 0.0290008 11.794 7.84623e-07 12 7.84623e-07C13.181 -0.000999215 14.139 0.954001 14.14 2.134C14.141 2.343 14.11 2.552 14.051 2.751ZM13.536 3.628C13.517 3.649 13.499 3.667 13.478 3.686L19.939 14.876C19.965 14.867 19.995 14.86 20.021 14.853V9.146C18.876 8.863 18.179 7.704 18.463 6.558C18.469 6.534 18.475 6.509 18.482 6.486L13.536 3.628ZM10.521 3.687L10.461 3.627L5.515 6.479C5.842 7.614 5.188 8.797 4.054 9.124C4.028 9.132 4.003 9.138 3.978 9.145V14.853L4.062 14.876L10.523 3.686L10.521 3.687ZM12.597 4.194C12.207 4.306 11.794 4.306 11.405 4.194L4.945 15.383C5.239 15.666 5.447 16.028 5.545 16.424H18.456C18.553 16.026 18.763 15.663 19.059 15.38L12.597 4.194ZM13.583 20.421L18.496 17.583C18.481 17.536 18.469 17.489 18.458 17.441H5.542L5.521 17.524L10.46 20.376C10.848 19.972 11.394 19.723 12 19.723C12.627 19.723 13.19 19.992 13.583 20.421Z"
              fill="#E10098"/>
    </g>
    <defs>
        <clipPath id="clip0">
            <rect width="24" height="24" fill="white"/>
        </clipPath>
    </defs>
</svg>
